X:610
T: "Kueherlied"
N: Z1290
O: Europa, Mitteleuropa, Deutschland, Harz
R: Handwerker -, Bauern - Lied
M: 2/4
L: 1/8
K: G
D | GGGG | FGA
A | FFAA | D2
d2 | BBdd | G2z
d | Bddd | edd2 | edd
d | BBdd | B2
d2 | BBdd | G2z

@@@ Tune index: 10368
